X:1
T:James Gibb editions
T:Psalm 130, vers. 1 (Becker) - Schütz
%%score [ ( 1 2 ) ( 3 4 ) ]
L:1/8
Q:1/4=98
M:none
K:C
V:1 treble nm="Soprano Alto" snm="S. A."
V:2 treble 
V:3 bass nm="Tenor Bass" snm="T. B."
V:4 bass 
V:1
"^Cornelius Becker\n(1561-1604)""^Psalm 130, version 1 SWV 235""^Heinrich Schütz\n(1585-1672)" B4 | %1
w: ~Aus|
w: dein|
 E2 B2 c2 B2 G2 A2 B2 B2 | c2 d2 c2 A2 (G2 F2) E4 :| A2 | G2 c2 B2 A (d2 cB)B A2 c2 | %5
w: tie- fer Not schrei ich zu dir, Herr|Gott, er- hör mein Ru\- * fen,|denn|so du willst das se\- * * hen an, was|
w: gnä- dig Oh- ren kehr zu mir und|mei- ner Bitt sie öff\- * ne.|||
 B2 c2 d2 G2 (Bc) A2 G2 G2 | c2 B2 A2 E2 (G2 F2) E4- | E8 |] %8
w: Sünd und Un- recht ist * ge- tan, wer|* * * * blei\- * ben?||
w: |||
V:2
 E4 | B,2 E2 E3 E E2 E2 ^D2 E2 | E2 G2 G2 F2 (E2 D2) B,4 :| E2 | E2 G2 G2 E (F2 E2) E E2 E2 | %5
w: |||||
 E2 E2 D3 D (DE) D2 D2 C2 | E2 E2 E2 C2 (E2 D2 C4) | B,8 |] %8
w: |kann Herr, vor dir blei\- * *|ben?|
V:3
 ^G,4 | ^G,2 G,2 A,2 G,2 B,2 E,2 ^F,2 =G,2 | G,2 B,2 E2 C2 (C>B, A,2) ^G,4 :| C2 | %4
 B,2 E2 D2 C (A,>D, A,2) ^G, A,2 A,2 | G,2 G,2 B,3 B, G,3 ^F, G,2 E,2 | %6
"^2. Bei dir gilt nichts denn Gnad und Gunst, \ndie Sünde zu vergeben, \nes ist doch unser Tun umsonst \nauch in dem besten Leben. \nVor dir sich niemand rühmen kann, \ndes muß dich fürchten jedermann \nund deiner Gnaden leben.\n\n3. Darum auf Gott will hoffen ich \nauf mein Verdienst nicht bauen; \nauf ihn mein Herz soll lassen sich \nund seiner Gnade trauen, \ndie mir zusagt sein wertes Wort, \ndas ist mein Trost und treuer Hort, \ndes will ich allzeit harren." A,2 G,2 C2 A,2 (B,C A,3 G,/F,/E,^F,) | %7
 ^G,8 |] %8
V:4
 E,4 | E,2 E,2 A,,2 E,2 E,2 C,2 B,,2 E,2 | C,2 G,,2 C,2 F,2 (C,2 D,2) E,4 :| A,,2 | %4
 E,2 C,2 G,2 A, (D,2 A,,E,)E, A,,2 A,,2 | E,2 C,2 G,3 G, (G,,C,) D,2 G,,2 C,2 | %6
 A,,2 E,2 A,,2 A,,2 (E,C, D,2"^4. Und ob es währt bis in die Nacht \nund wieder an den Morgen,\ndoch soll mein Herz an Gottes Macht\nverzweifeln nicht, noch sorgen.\nSo tu Israel rechter Art, \nder aus dem Geist erzeuget ward \nund seines Gotts erharre.\n\n5. Ob bei uns ist der Sünde viel\nbei Gott ist viel mehr Gnade;\nsein Hand zu helfen hat kein Ziel,\nwie groß auch sei der Schade. \nEr ist allein der gute Hirt,\nder Israel erlösen wird \naus seinen Sünden allen.\n" A,,4) | %7
 E,,8 |] %8

